icons/circle-chevron-down-outline.svg

<svg xmlns="http://www.w3.org/2000/svg" width="24" height="24" viewBox="0 0 24 24">
  <path d="M12,1 C18.0751322,1 23,5.92486775 23,12 C23,18.0751322 18.0751322,23 12,23 C5.92486775,23 1,18.0751322 1,12 C1,5.92486775 5.92486775,1 12,1 Z M12,3 C7.02943725,3 3,7.02943725 3,12 C3,16.9705627 7.02943725,21 12,21 C16.9705627,21 21,16.9705627 21,12 C21,7.02943725 16.9705627,3 12,3 Z M7.38710056,9.20970461 C7.77939176,8.90467972 8.34662282,8.93240926 8.70710678,9.29289322 L8.70710678,9.29289322 L12,12.585 L15.2928932,9.29289322 L15.3871006,9.20970461 C15.7793918,8.90467972 16.3466228,8.93240926 16.7071068,9.29289322 C17.0976311,9.68341751 17.0976311,10.3165825 16.7071068,10.7071068 L16.7071068,10.7071068 L12.7071068,14.7071068 L12.6128994,14.7902954 C12.2206082,15.0953203 11.6533772,15.0675907 11.2928932,14.7071068 L11.2928932,14.7071068 L7.29289322,10.7071068 L7.20970461,10.6128994 C6.90467972,10.2206082 6.93240926,9.65337718 7.29289322,9.29289322 L7.29289322,9.29289322 Z"/>
</svg>

<svg xmlns="http://www.w3.org/2000/svg" viewBox="0 0 24 24">
  <path d="M12 1a11 11 0 1 1 0 22 11 11 0 0 1 0-22zm0 2a9 9 0 1 0 0 18 9 9 0 0 0 0-18zM7.39 9.21a1 1 0 0 1 1.32.08L12 12.6l3.3-3.3.09-.08a1 1 0 0 1 1.32 1.5l-4 4-.1.08a1 1 0 0 1-1.32-.08l-4-4-.08-.1a1 1 0 0 1 .08-1.32z"/>
</svg>
